;FLAVOR:Marlin
;TIME:6435
;Filament used: 4.41829m
;Layer height: 0.2
;MINX:75.95
;MINY:91.835
;MINZ:0.2
;MAXX:159.05
;MAXY:143.165
;MAXZ:11
;Generated with Cura_SteamEngine 4.13.0
M140 S60
M105
M190 S60
M104 S240
M105
M109 S240
M82 ;absolute extrusion mode
; Ender 3 Custom Start G-code
G92 E0 ; Reset Extruder
G28 ; Home all axes
G1 Z2.0 F3000 ; Move Z Axis up little to prevent scratching of Heat Bed
G1 X0.1 Y20 Z0.3 F5000.0 ; Move to start position
G1 X0.1 Y200.0 Z0.3 F1500.0 E15 ; Draw the first line
G1 X0.4 Y200.0 Z0.3 F5000.0 ; Move to side a little
G1 X0.4 Y20 Z0.3 F1500.0 E30 ; Draw the second line
G92 E0 ; Reset Extruder
G1 Z2.0 F3000 ; Move Z Axis up little to prevent scratching of Heat Bed
G1 X5 Y20 Z0.3 F5000.0 ; Move over to prevent blob squish
G92 E0
G92 E0
G1 F2700 E-5
;LAYER_COUNT:55
;LAYER:0
M107
;MESH:bottom_main.stl
G0 F6000 X101.85 Y99.1 Z0.2
;TYPE:WALL-INNER
G1 F2700 E0
G1 F1200 X101.85 Y95.9 E0.10643
G1 X82.65 Y95.9 E0.74503
G1 X82.65 Y99.1 E0.85146
G1 X101.85 Y99.1 E1.49005
G0 F6000 X101.45 Y98.7
;TYPE:WALL-OUTER
G1 F1200 X101.45 Y96.3 E1.56988
G1 X83.05 Y96.3 E2.18186
G1 X83.05 Y98.7 E2.26169
G1 X101.45 Y98.7 E2.87368
G1 F2700 E-2.12632
G0 F6000 X101.65 Y98.7
G0 X101.85 Y99.29
G0 X101.85 Y99.71
G0 X101.85 Y103.1
;TYPE:WALL-INNER
G1 F2700 E2.87368
G1 F1200 X101.85 Y99.9 E2.98011
G1 X82.65 Y99.9 E3.6187
G1 X82.65 Y103.1 E3.72514
G1 X101.85 Y103.1 E4.36373
G0 F6000 X101.45 Y102.7
;TYPE:WALL-OUTER
G1 F1200 X101.45 Y100.3 E4.44355
G1 X83.05 Y100.3 E5.05554
G1 X83.05 Y102.7 E5.13536
G1 X101.45 Y102.7 E5.74735
G1 F2700 E0.74735
G0 F6000 X101.65 Y102.7
G0 X101.85 Y103.29
G0 X101.85 Y103.71
G0 X101.85 Y107.1
;TYPE:WALL-INNER
G1 F2700 E5.74735
G1 F1200 X101.85 Y103.9 E5.85378
G1 X82.65 Y103.9 E6.49238
G1 X82.65 Y107.1 E6.59881
G1 X101.85 Y107.1 E7.23741
G0 F6000 X101.45 Y106.7
;TYPE:WALL-OUTER
G1 F1200 X101.45 Y104.3 E7.31723
G1 X83.05 Y104.3 E7.92922
G1 X83.05 Y106.7 E8.00904
G1 X101.45 Y106.7 E8.62103
G1 F2700 E3.62103
G0 F6000 X101.65 Y106.7
G0 X101.85 Y107.29
G0 X101.85 Y107.71
G0 X101.85 Y111.1
;TYPE:WALL-INNER
G1 F2700 E8.62103
G1 F1200 X101.85 Y107.9 E8.72746
G1 X82.65 Y107.9 E9.36605
G1 X82.65 Y111.1 E9.47249
G1 X101.85 Y111.1 E10.11108
G0 F6000 X101.45 Y110.7
;TYPE:WALL-OUTER
G1 F1200 X101.45 Y108.3 E10.19091
G1 X83.05 Y108.3 E10.80289
G1 X83.05 Y110.7 E10.88272
G1 X101.45 Y110.7 E11.4947
G1 F2700 E6.4947
G0 F6000 X101.65 Y110.7
G0 X101.85 Y111.29
G0 X101.85 Y111.71
G0 X101.85 Y115.1
;TYPE:WALL-INNER
G1 F2700 E11.4947
G1 F1200 X101.85 Y111.9 E11.60114
G1 X82.65 Y111.9 E12.23973
G1 X82.65 Y115.1 E12.34616
G1 X101.85 Y115.1 E12.98476
G0 F6000 X101.45 Y114.7
;TYPE:WALL-OUTER
G1 F1200 X101.45 Y112.3 E13.06458
G1 X83.05 Y112.3 E13.67657
G1 X83.05 Y114.7 E13.75639
G1 X101.45 Y114.7 E14.36838
G1 F2700 E9.36838
G0 F6000 X101.65 Y114.7
G0 X99.923 Y115.27
G0 X99.923 Y113.835
G0 X123.663 Y139.913
G0 X122.611 Y138.861
G0 X122.957 Y139.189
G0 X123.329 Y138.905
G0 X123.773 Y138.721
G0 X124.25 Y138.658
G0 X124.727 Y138.721
G0 X125.171 Y138.905
G0 X125.553 Y139.197
G0 X125.845 Y139.579
G0 X126.029 Y140.023
G0 X126.092 Y140.5
G0 X125.807 Y141.9
;TYPE:WALL-INNER
G1 F2700 E14.36838
G1 F1200 X126.074 Y141.552 E14.38297
G1 X126.284 Y141.044 E14.40125
G1 X126.355 Y140.5 E14.4195
G1 X126.284 Y139.956 E14.43774
G1 X126.074 Y139.448 E14.45603
G1 X125.739 Y139.011 E14.47434
G1 X125.302 Y138.676 E14.49265
G1 X124.794 Y138.466 E14.51094
G1 X124.25 Y138.395 E14.52918
G1 X123.706 Y138.466 E14.54743
G1 X123.198 Y138.676 E14.56571
G1 X122.761 Y139.011 E14.58403
G1 X122.426 Y139.448 E14.60234
G1 X122.216 Y139.956 E14.62063
G1 X122.145 Y140.5 E14.63887
G1 X122.216 Y141.044 E14.65712
G1 X122.426 Y141.552 E14.6754
G1 X122.693 Y141.9 E14.68999
G1 X79.85 Y141.9 E16.11496
G1 X79.85 Y93.1 E17.73805
G1 X158.65 Y93.1 E20.35895
G1 X158.65 Y141.9 E21.98204
G1 X125.807 Y141.9 E23.07441
G1 F2700 E18.07441
G0 F6000 X124.834 Y142.197
G0 X124.25 Y142.202
;TYPE:WALL-OUTER
G1 F2700 E23.07441
G1 F1200 X124.69 Y142.144 E23.08917
G1 X125.101 Y141.974 E23.10396
G1 X125.454 Y141.704 E23.11874
G1 X125.724 Y141.351 E23.13352
G1 X125.894 Y140.94 E23.14832
G1 X125.952 Y140.5 E23.16308
G1 X125.894 Y140.06 E23.17784
G1 X125.724 Y139.649 E23.19263
G1 X125.454 Y139.296 E23.20741
G1 X125.101 Y139.026 E23.22219
G1 X124.69 Y138.856 E23.23699
G1 X124.25 Y138.798 E23.25175
G1 X123.81 Y138.856 E23.26651
G1 X123.399 Y139.026 E23.2813
G1 X123.046 Y139.296 E23.29608
G1 X122.776 Y139.649 E23.31087
G1 X122.606 Y140.06 E23.32566
G1 X122.548 Y140.5 E23.34042
G1 X122.606 Y140.94 E23.35518
G1 X122.776 Y141.351 E23.36997
G1 X123.046 Y141.704 E23.38476
G1 X123.399 Y141.974 E23.39954
G1 X123.81 Y142.144 E23.41433
G1 X124.25 Y142.202 E23.42909
G1 F2700 E18.42909
G0 F6000 X123.83 Y142.188
G0 X122.243 Y141.658
G0 X79.65 Y142.13
G1 F2700 E23.42909
G0 F6000 X79.45 Y142.3
G1 F1200 X79.45 Y92.7 E25.07879
G1 X159.05 Y92.7 E27.7263
G1 X159.05 Y142.3 E29.376
G1 X79.45 Y142.3 E32.02351
G0 F6000 X79.62 Y142.13
G0 X79.96 Y141.51
G0 X80.24 Y141.51
;TYPE:SKIN
G1 F1200 X80.24 Y93.49 E33.62066
G1 X158.26 Y93.49 E36.21562
G1 X158.26 Y141.51 E37.81277
G1 X126.514 Y141.51 E38.86865
G1 X126.664 Y141.145 E38.88177
G1 X126.749 Y140.5 E38.90341
G1 X126.664 Y139.855 E38.92505
G1 X126.415 Y139.251 E38.94678
G1 X126.018 Y138.732 E38.96851
G1 X125.499 Y138.335 E38.99024
G1 X124.895 Y138.086 E39.01197
G1 X124.25 Y138.001 E39.03361
G1 X123.605 Y138.086 E39.05525
G1 X123.001 Y138.335 E39.07698
G1 X122.482 Y138.732 E39.09871
G1 X122.085 Y139.251 E39.12044
G1 X121.836 Y139.855 E39.14217
G1 X121.751 Y140.5 E39.16381
G1 X121.836 Y141.145 E39.18545
G1 X121.986 Y141.51 E39.19857
G1 X80.24 Y141.51 E40.58705
G1 F2700 E35.58705
G0 F6000 X79.96 Y141.51
G0 X80.06 Y115.24
G0 X82.46 Y115.24
G1 F2700 E40.58705
G0 F6000 X82.26 Y115.49
G1 F1200 X102.24 Y115.49 E41.25159
G1 X102.24 Y111.51 E41.38397
G1 X82.26 Y111.51 E42.0485
G1 X82.26 Y115.49 E42.18088
G1 F2700 E37.18088
G0 F6000 X82.54 Y115.24
G0 X82.54 Y111.71
G0 X82.54 Y111.29
G1 F2700 E42.18088
G0 F6000 X82.26 Y111.49
G1 F1200 X102.24 Y111.49 E42.84542
G1 X102.24 Y107.51 E42.97779
G1 X82.26 Y107.51 E43.64233
G1 X82.26 Y111.49 E43.7747
G1 F2700 E38.7747
G0 F6000 X82.54 Y111.24
G0 X82.54 Y107.71
G0 X82.54 Y107.29
G1 F2700 E43.7747
G0 F6000 X82.26 Y107.49
G1 F1200 X102.24 Y107.49 E44.43924
G1 X102.24 Y103.51 E44.57162
G1 X82.26 Y103.51 E45.23615
G1 X82.26 Y107.49 E45.36853
G1 F2700 E40.36853
G0 F6000 X82.54 Y107.24
G0 X82.54 Y103.71
G0 X82.54 Y103.29
G1 F2700 E45.36853
G0 F6000 X82.26 Y103.49
G1 F1200 X102.24 Y103.49 E46.03307
G1 X102.24 Y99.51 E46.16544
G1 X82.26 Y99.51 E46.82998
G1 X82.26 Y103.49 E46.96235
G1 F2700 E41.96235
G0 F6000 X82.54 Y103.24
G0 X82.54 Y99.71
G0 X82.54 Y99.29
G1 F2700 E46.96235
G0 F6000 X82.26 Y99.49
G1 F1200 X102.24 Y99.49 E47.62689
G1 X102.24 Y95.51 E47.75927
G1 X82.26 Y95.51 E48.42381
G1 X82.26 Y99.49 E48.55618
G1 F2700 E43.55618
G0 F6000 X82.54 Y99.24
G0 X84.964 Y99.27
G0 X84.964 Y97.835
G0 X84.784 Y101.084
G0 X83.903 Y101.153
G0 X83.903 Y101.847
G0 X84.738 Y101.914
G0 X84.562 Y105.084
G0 X83.903 Y105.153
G0 X83.903 Y105.847
G0 X84.516 Y105.914
G0 X84.341 Y109.083
G0 X83.903 Y109.153
G0 X83.903 Y109.847
G0 X84.295 Y109.914
G0 X84.119 Y113.083
G0 X83.903 Y113.847
G0 X82.454 Y143.165
G0 X82.454 Y141.69
G0 X80.82 Y141.79
G1 F2700 E48.55618
G0 F6000 X80.82 Y141.349
G1 F1200 X80.399 Y140.927 E48.57601
G0 F6000 X80.399 Y140.362
G1 F1200 X81.386 Y141.349 E48.62243
G0 F6000 X81.952 Y141.349
G1 F1200 X80.399 Y139.796 E48.69548
G0 F6000 X80.399 Y139.23
G1 F1200 X82.517 Y141.349 E48.79513
G0 F6000 X83.083 Y141.349
G1 F1200 X80.399 Y138.665 E48.92138
G0 F6000 X80.399 Y138.099
G1 F1200 X83.649 Y141.349 E49.07425
G0 F6000 X84.215 Y141.349
G1 F1200 X80.399 Y137.533 E49.25374
G0 F6000 X80.399 Y136.967
G1 F1200 X84.78 Y141.349 E49.45983
G0 F6000 X85.346 Y141.349
G1 F1200 X80.399 Y136.402 E49.69252
G0 F6000 X80.399 Y135.836
G1 F1200 X85.912 Y141.349 E49.95184
G0 F6000 X86.477 Y141.349
G1 F1200 X80.399 Y135.27 E50.23775
G0 F6000 X80.399 Y134.705
G1 F1200 X87.043 Y141.349 E50.55026
G0 F6000 X87.609 Y141.349
G1 F1200 X80.399 Y134.139 E50.8894
G0 F6000 X80.399 Y133.573
G1 F1200 X88.174 Y141.349 E51.25514
G0 F6000 X88.74 Y141.349
G1 F1200 X80.399 Y133.008 E51.64747
G0 F6000 X80.399 Y132.442
G1 F1200 X89.306 Y141.349 E52.06643
G0 F6000 X89.871 Y141.349
G1 F1200 X80.399 Y131.876 E52.51199
G0 F6000 X80.399 Y131.311
G1 F1200 X90.437 Y141.349 E52.98414
G0 F6000 X91.003 Y141.349
G1 F1200 X80.399 Y130.745 E53.48292
G0 F6000 X80.399 Y130.179
G1 F1200 X91.568 Y141.349 E54.0083
G0 F6000 X92.134 Y141.349
G1 F1200 X80.399 Y129.614 E54.56028
G0 F6000 X80.399 Y129.048
G1 F1200 X92.7 Y141.349 E55.13888
G0 F6000 X93.265 Y141.349
G1 F1200 X80.399 Y128.482 E55.74408
G0 F6000 X80.399 Y127.917
G1 F1200 X93.831 Y141.349 E56.37588
G0 F6000 X94.397 Y141.349
G1 F1200 X80.399 Y127.351 E57.03431
G0 F6000 X80.399 Y126.785
G1 F1200 X94.963 Y141.349 E57.71935
G0 F6000 X95.528 Y141.349
G1 F1200 X80.399 Y126.219 E58.431
G0 F6000 X80.399 Y125.654
G1 F1200 X96.094 Y141.349 E59.16924
G0 F6000 X96.66 Y141.349
G1 F1200 X80.399 Y125.088 E59.93411
G0 F6000 X80.399 Y124.522
G1 F1200 X97.225 Y141.349 E60.72558
G0 F6000 X97.791 Y141.349
G1 F1200 X80.399 Y123.957 E61.54364
G0 F6000 X80.399 Y123.391
G1 F1200 X98.357 Y141.349 E62.38833
G0 F6000 X98.922 Y141.349
G1 F1200 X80.399 Y122.825 E63.25962
G0 F6000 X80.399 Y122.26
G1 F1200 X99.488 Y141.349 E64.15751
G0 F6000 X100.054 Y141.349
G1 F1200 X80.399 Y121.694 E65.08202
G0 F6000 X80.399 Y121.128
G1 F1200 X100.619 Y141.349 E66.03313
G0 F6000 X101.185 Y141.349
G1 F1200 X80.399 Y120.563 E67.01084
G0 F6000 X80.399 Y119.997
G1 F1200 X101.751 Y141.349 E68.01517
G0 F6000 X102.316 Y141.349
G1 F1200 X80.399 Y119.431 E69.0461
G0 F6000 X80.399 Y118.866
G1 F1200 X102.882 Y141.349 E70.10364
G0 F6000 X103.448 Y141.349
G1 F1200 X80.399 Y118.3 E71.18779
G0 F6000 X80.399 Y117.734
G1 F1200 X104.013 Y141.349 E72.29854
G0 F6000 X104.579 Y141.349
G1 F1200 X80.399 Y117.169 E73.4359
G0 F6000 X80.399 Y116.603
G1 F1200 X105.145 Y141.349 E74.59987
G0 F6000 X105.711 Y141.349
G1 F1200 X80.399 Y116.037 E75.79047
G0 F6000 X80.399 Y115.471
G1 F1200 X106.276 Y141.349 E77.00767
G0 F6000 X106.842 Y141.349
G1 F1200 X80.399 Y114.906 E78.25147
G0 F6000 X80.399 Y114.34
G1 F1200 X107.408 Y141.349 E79.52189
G0 F6000 X107.973 Y141.349
G1 F1200 X82.273 Y115.649 E80.73074
G0 F6000 X82.1 Y115.475
G1 F1200 X80.399 Y113.774 E80.81075
G0 F6000 X80.399 Y113.209
G1 F1200 X82.1 Y114.909 E80.89073
G0 F6000 X82.1 Y114.344
G1 F1200 X80.399 Y112.643 E80.97074
G0 F6000 X80.399 Y112.077
G1 F1200 X82.1 Y113.778 E81.05075
G0 F6000 X82.1 Y113.212
G1 F1200 X80.399 Y111.512 E81.13074
G0 F6000 X80.399 Y110.946
G1 F1200 X82.1 Y112.647 E81.21075
G0 F6000 X82.1 Y112.081
G1 F1200 X80.399 Y110.38 E81.29076
G0 F6000 X80.399 Y109.815
G1 F1200 X82.1 Y111.515 E81.37075
G0 F6000 X82.1 Y110.95
G1 F1200 X80.399 Y109.249 E81.45075
G0 F6000 X80.399 Y108.683
G1 F1200 X82.1 Y110.384 E81.53076
G0 F6000 X82.1 Y109.818
G1 F1200 X80.399 Y108.118 E81.61075
G0 F6000 X80.399 Y107.552
G1 F1200 X82.1 Y109.252 E81.69074
G0 F6000 X82.1 Y108.687
G1 F1200 X80.399 Y106.986 E81.77075
G0 F6000 X80.399 Y106.42
G1 F1200 X82.1 Y108.121 E81.85076
G0 F6000 X82.1 Y107.555
G1 F1200 X80.399 Y105.855 E81.93074
G0 F6000 X80.399 Y105.289
G1 F1200 X82.1 Y106.99 E82.01075
G0 F6000 X82.1 Y106.424
G1 F1200 X80.399 Y104.723 E82.09076
G0 F6000 X80.399 Y104.158
G1 F1200 X82.1 Y105.858 E82.17075
G0 F6000 X82.1 Y105.293
G1 F1200 X80.399 Y103.592 E82.25076
G0 F6000 X80.399 Y103.026
G1 F1200 X82.1 Y104.727 E82.33077
G0 F6000 X82.1 Y104.161
G1 F1200 X80.399 Y102.461 E82.41076
G0 F6000 X80.399 Y101.895
G1 F1200 X82.1 Y103.596 E82.49077
G0 F6000 X82.1 Y103.03
G1 F1200 X80.399 Y101.329 E82.57077
G0 F6000 X80.399 Y100.764
G1 F1200 X82.1 Y102.464 E82.65076
G0 F6000 X82.1 Y101.899
G1 F1200 X80.399 Y100.198 E82.73077
G0 F6000 X80.399 Y99.632
G1 F1200 X82.1 Y101.333 E82.81078
G0 F6000 X82.1 Y100.767
G1 F1200 X80.399 Y99.067 E82.89077
G0 F6000 X80.399 Y98.501
G1 F1200 X82.1 Y100.201 E82.97075
G0 F6000 X82.1 Y99.636
G1 F1200 X80.399 Y97.935 E83.05076
G0 F6000 X80.399 Y97.37
G1 F1200 X82.1 Y99.07 E83.13075
G0 F6000 X82.1 Y98.504
G1 F1200 X80.399 Y96.804 E83.21074
G0 F6000 X80.399 Y96.238
G1 F1200 X82.1 Y97.939 E83.29075
G0 F6000 X82.1 Y97.373
G1 F1200 X80.399 Y95.672 E83.37076
G0 F6000 X80.399 Y95.107
G1 F1200 X82.1 Y96.807 E83.45074
G0 F6000 X82.1 Y96.242
G1 F1200 X80.399 Y94.541 E83.53075
G0 F6000 X80.399 Y93.975
G1 F1200 X82.1 Y95.676 E83.61076
G0 F6000 X82.339 Y95.349
G1 F1200 X80.639 Y93.649 E83.69072
G0 F6000 X81.204 Y93.649
G1 F1200 X82.904 Y95.349 E83.77069
G0 F6000 X83.47 Y95.349
G1 F1200 X81.77 Y93.649 E83.85065
G0 F6000 X82.336 Y93.649
G1 F1200 X84.036 Y95.349 E83.93061
G0 F6000 X84.601 Y95.349
G1 F1200 X82.901 Y93.649 E84.01058
G0 F6000 X83.467 Y93.649
G1 F1200 X85.167 Y95.349 E84.09054
G0 F6000 X85.733 Y95.349
G1 F1200 X84.033 Y93.649 E84.1705
G0 F6000 X84.598 Y93.649
G1 F1200 X86.298 Y95.349 E84.25046
G0 F6000 X86.864 Y95.349
G1 F1200 X85.164 Y93.649 E84.33043
G0 F6000 X85.73 Y93.649
G1 F1200 X87.43 Y95.349 E84.41039
G0 F6000 X87.995 Y95.349
G1 F1200 X86.296 Y93.649 E84.49033
G0 F6000 X86.861 Y93.649
G1 F1200 X88.561 Y95.349 E84.57029
G0 F6000 X89.127 Y95.349
G1 F1200 X87.427 Y93.649 E84.65025
G0 F6000 X87.993 Y93.649
G1 F1200 X89.692 Y95.349 E84.73019
G0 F6000 X90.258 Y95.349
G1 F1200 X88.558 Y93.649 E84.81016
G0 F6000 X89.124 Y93.649
G1 F1200 X90.824 Y95.349 E84.89012
G0 F6000 X91.39 Y95.349
G1 F1200 X89.69 Y93.649 E84.97008
G0 F6000 X90.255 Y93.649
G1 F1200 X91.955 Y95.349 E85.05004
G0 F6000 X92.521 Y95.349
G1 F1200 X90.821 Y93.649 E85.13001
G0 F6000 X91.387 Y93.649
G1 F1200 X93.087 Y95.349 E85.20997
G0 F6000 X93.652 Y95.349
G1 F1200 X91.952 Y93.649 E85.28993
G0 F6000 X92.518 Y93.649
G1 F1200 X94.218 Y95.349 E85.3699
G0 F6000 X94.784 Y95.349
G1 F1200 X93.084 Y93.649 E85.44986
G0 F6000 X93.649 Y93.649
G1 F1200 X95.349 Y95.349 E85.52982
G0 F6000 X95.915 Y95.349
G1 F1200 X94.215 Y93.649 E85.60978
G0 F6000 X94.781 Y93.649
G1 F1200 X96.481 Y95.349 E85.68975
G0 F6000 X97.046 Y95.349
G1 F1200 X95.346 Y93.649 E85.76971
G0 F6000 X95.912 Y93.649
G1 F1200 X97.612 Y95.349 E85.84967
G0 F6000 X98.178 Y95.349
G1 F1200 X96.478 Y93.649 E85.92964
G0 F6000 X97.044 Y93.649
G1 F1200 X98.743 Y95.349 E86.00957
G0 F6000 X99.309 Y95.349
G1 F1200 X97.609 Y93.649 E86.08954
G0 F6000 X98.175 Y93.649
G1 F1200 X99.875 Y95.349 E86.1695
G0 F6000 X100.44 Y95.349
G1 F1200 X98.741 Y93.649 E86.24944
G0 F6000 X99.306 Y93.649
G1 F1200 X101.006 Y95.349 E86.3294
G0 F6000 X101.572 Y95.349
G1 F1200 X99.872 Y93.649 E86.40937
G0 F6000 X100.438 Y93.649
G1 F1200 X102.138 Y95.349 E86.48933
G0 F6000 X102.399 Y95.611
G1 F1200 X148.137 Y141.349 E88.6407
G0 F6000 X147.571 Y141.349
G1 F1200 X102.399 Y96.177 E90.76546
G0 F6000 X102.399 Y96.742
G1 F1200 X147.006 Y141.349 E92.86363
G0 F6000 X146.44 Y141.349
G1 F1200 X102.399 Y97.308 E94.93519
G0 F6000 X102.399 Y97.874
G1 F1200 X145.874 Y141.349 E96.98012
G0 F6000 X145.309 Y141.349
G1 F1200 X102.399 Y98.439 E98.99847
G0 F6000 X102.399 Y99.005
G1 F1200 X144.743 Y141.349 E100.9902
G0 F6000 X144.177 Y141.349
G1 F1200 X102.399 Y99.571 E102.95531
G0 F6000 X102.399 Y100.136
G1 F1200 X143.611 Y141.349 E104.89382
G0 F6000 X143.046 Y141.349
G1 F1200 X102.399 Y100.702 E106.80573
G0 F6000 X102.399 Y101.268
G1 F1200 X142.48 Y141.349 E108.69102
G0 F6000 X141.914 Y141.349
G1 F1200 X102.399 Y101.833 E110.54971
G0 F6000 X102.399 Y102.399
G1 F1200 X141.349 Y141.349 E112.3818
G0 F6000 X140.783 Y141.349
G1 F1200 X102.399 Y102.965 E114.18726
G0 F6000 X102.399 Y103.531
G1 F1200 X140.217 Y141.349 E115.9661
G0 F6000 X139.652 Y141.349
G1 F1200 X102.399 Y104.096 E117.71837
G0 F6000 X102.399 Y104.662
G1 F1200 X139.086 Y141.349 E119.44402
G0 F6000 X138.52 Y141.349
G1 F1200 X102.399 Y105.228 E121.14304
G0 F6000 X102.399 Y105.793
G1 F1200 X137.955 Y141.349 E122.81548
G0 F6000 X137.389 Y141.349
G1 F1200 X102.399 Y106.359 E124.4613
G0 F6000 X102.399 Y106.925
G1 F1200 X136.823 Y141.349 E126.0805
G0 F6000 X136.258 Y141.349
G1 F1200 X102.399 Y107.49 E127.67313
