;FLAVOR:Marlin
;TIME:18768
;Filament used: 12.7574m
;Layer height: 0.2
;MINX:33.825
;MINY:42.7
;MINZ:0.2
;MAXX:198.077
;MAXY:184.434
;MAXZ:17
;Generated with Cura_SteamEngine 4.13.0
M140 S60
M105
M190 S60
M104 S240
M105
M109 S240
M82 ;absolute extrusion mode
; Ender 3 Custom Start G-code
G92 E0 ; Reset Extruder
G28 ; Home all axes
G1 Z2.0 F3000 ; Move Z Axis up little to prevent scratching of Heat Bed
G1 X0.1 Y20 Z0.3 F5000.0 ; Move to start position
G1 X0.1 Y200.0 Z0.3 F1500.0 E15 ; Draw the first line
G1 X0.4 Y200.0 Z0.3 F5000.0 ; Move to side a little
G1 X0.4 Y20 Z0.3 F1500.0 E30 ; Draw the second line
G92 E0 ; Reset Extruder
G1 Z2.0 F3000 ; Move Z Axis up little to prevent scratching of Heat Bed
G1 X5 Y20 Z0.3 F5000.0 ; Move over to prevent blob squish
G92 E0
G92 E0
G1 F2700 E-5
;LAYER_COUNT:85
;LAYER:0
M107
G0 F6000 X72.836 Y46.163 Z0.2
;TYPE:SKIRT
G1 F2700 E0
G1 F1200 X73.319 Y45.539 E0.02625
G1 X73.724 Y45.102 E0.04606
G1 X73.841 Y44.985 E0.05157
G1 X74.427 Y44.455 E0.07785
G1 X75.063 Y43.988 E0.10409
G1 X75.743 Y43.587 E0.13035
G1 X76.461 Y43.257 E0.15663
G1 X77.208 Y43.002 E0.18288
G1 X77.977 Y42.823 E0.20914
G1 X78.761 Y42.723 E0.23543
G1 X79.356 Y42.7 E0.25523
G1 X159.122 Y42.7 E2.90826
G1 X159.911 Y42.74 E2.93454
G1 X160.691 Y42.859 E2.96078
G1 X161.456 Y43.057 E2.98706
G1 X162.196 Y43.331 E3.01331
G1 X162.905 Y43.679 E3.03958
G1 X163.576 Y44.097 E3.06587
G1 X164.2 Y44.58 E3.09212
G1 X164.637 Y44.985 E3.11193
G1 X164.754 Y45.102 E3.11744
G1 X165.284 Y45.688 E3.14372
G1 X165.751 Y46.324 E3.16996
G1 X166.152 Y47.004 E3.19622
G1 X166.482 Y47.722 E3.2225
G1 X166.737 Y48.469 E3.24875
G1 X166.916 Y49.238 E3.27501
G1 X167.016 Y50.022 E3.3013
G1 X167.039 Y50.617 E3.3211
G1 X167.039 Y96.211 E4.83757
G1 X167.273 Y96.2 E4.84536
G1 X167.823 Y96.2 E4.86365
G1 X167.983 Y96.055 E4.87083
G1 X168.619 Y95.588 E4.89708
G1 X169.299 Y95.187 E4.92333
G1 X170.017 Y94.857 E4.94962
G1 X170.764 Y94.602 E4.97587
G1 X171.533 Y94.423 E5.00213
G1 X172.317 Y94.323 E5.02842
G1 X172.911 Y94.3 E5.04819
G1 X182.659 Y94.299 E5.37241
G1 X183.448 Y94.339 E5.39868
G1 X184.228 Y94.458 E5.42493
G1 X184.993 Y94.656 E5.45121
G1 X185.734 Y94.93 E5.47749
G1 X186.443 Y95.278 E5.50375
G1 X187.113 Y95.695 E5.53
G1 X187.738 Y96.178 E5.55627
G1 X187.762 Y96.2 E5.55736
G1 X188.286 Y96.2 E5.57479
G1 X189.066 Y96.239 E5.60076
G1 X189.444 Y96.277 E5.6134
G1 X190.225 Y96.396 E5.63967
G1 X190.92 Y96.571 E5.66351
G1 X191.294 Y96.684 E5.6765
G1 X192.037 Y96.951 E5.70276
G1 X192.717 Y97.273 E5.72779
G1 X193.061 Y97.457 E5.74076
G1 X193.727 Y97.857 E5.7666
G1 X194.356 Y98.324 E5.79266
G1 X194.644 Y98.561 E5.80506
G1 X195.228 Y99.093 E5.83134
G1 X195.698 Y99.613 E5.85465
G1 X195.942 Y99.908 E5.86739
G1 X196.492 Y100.659 E5.89835
G1 X196.852 Y101.275 E5.92208
G1 X197.037 Y101.628 E5.93533
G1 X197.367 Y102.345 E5.96158
G1 X197.596 Y102.997 E5.98457
G1 X197.707 Y103.365 E5.99735
G1 X197.896 Y104.131 E6.02359
G1 X198 Y104.835 E6.04726
G1 X198.038 Y105.212 E6.05987
G1 X198.077 Y105.994 E6.08591
G1 X198.077 Y153.883 E7.6787
G1 X198.056 Y154.293 E7.69236
G1 X198.067 Y154.398 E7.69587
G1 X198.077 Y154.8 E7.70924
G1 X198.077 Y157.991 E7.81538
G1 X198.038 Y158.767 E7.84122
G1 X197.997 Y159.177 E7.85492
G1 X197.879 Y159.958 E7.88119
G1 X197.704 Y160.654 E7.90506
G1 X197.596 Y161.012 E7.9175
G1 X197.33 Y161.755 E7.94375
G1 X196.988 Y162.471 E7.97014
G1 X196.804 Y162.811 E7.983
G1 X196.393 Y163.486 E8.00928
G1 X196.006 Y164.007 E8.03087
G1 X195.755 Y164.317 E8.04414
G1 X195.228 Y164.905 E8.0704
G1 X194.605 Y165.468 E8.09833
G1 X194.283 Y165.729 E8.11211
G1 X193.645 Y166.195 E8.13839
G1 X193.039 Y166.553 E8.1618
G1 X192.705 Y166.731 E8.17439
G1 X191.991 Y167.067 E8.20064
G1 X191.369 Y167.291 E8.22262
G1 X191.002 Y167.406 E8.23542
G1 X190.238 Y167.604 E8.26167
G1 X189.368 Y167.732 E8.29091
G1 X188.956 Y167.769 E8.30467
G1 X188.258 Y167.8 E8.32791
G1 X167.25 Y167.8 E9.02664
G1 X166.484 Y167.762 E9.05215
G1 X166.18 Y167.732 E9.06231
G1 X166.181 Y167.725 E9.06254
G1 X165.896 Y167.702 E9.07205
G1 X165.119 Y167.56 E9.09832
G1 X164.651 Y167.434 E9.11444
G1 X164.235 Y167.308 E9.1289
G1 X163.492 Y167.041 E9.15516
G1 X162.78 Y166.701 E9.1814
G1 X162.481 Y166.539 E9.19271
G1 X161.807 Y166.128 E9.21897
G1 X161.45 Y165.87 E9.23362
G1 X161.347 Y165.791 E9.23794
G1 X161.09 Y165.585 E9.24889
G1 X160.864 Y165.396 E9.25869
G1 X160.285 Y164.86 E9.28493
G1 X159.842 Y164.366 E9.307
G1 X159.588 Y164.057 E9.32031
G1 X159.119 Y163.422 E9.34656
G1 X158.753 Y162.815 E9.37014
G1 X158.568 Y162.473 E9.38307
G1 X158.228 Y161.76 E9.40934
G1 X157.979 Y161.073 E9.43365
G1 X157.863 Y160.699 E9.44667
G1 X157.668 Y159.934 E9.47293
G1 X157.544 Y159.085 E9.50147
G1 X157.508 Y158.684 E9.51486
G1 X157.477 Y157.987 E9.53806
G1 X157.477 Y154.8 E9.64406
G1 X157.497 Y154.398 E9.65745
G1 X157.477 Y153.883 E9.67459
G1 X157.477 Y108.3 E11.19069
G1 X101.917 Y108.3 E13.03862
G1 X101.917 Y110.73 E13.11944
G1 X102.132 Y110.938 E13.12939
G1 X102.662 Y111.524 E13.15567
G1 X103.129 Y112.16 E13.18192
G1 X103.53 Y112.84 E13.20817
G1 X103.86 Y113.558 E13.23446
G1 X104.115 Y114.305 E13.26071
G1 X104.294 Y115.074 E13.28697
G1 X104.394 Y115.858 E13.31326
G1 X104.417 Y116.453 E13.33306
G1 X104.417 Y129.036 E13.75157
G1 X132.519 Y129.036 E14.68625
G1 X132.96 Y128.661 E14.7055
G1 X133.306 Y128.391 E14.7201
G1 X133.953 Y127.937 E14.74639
G1 X134.352 Y127.702 E14.76179
G1 X134.751 Y127.483 E14.77693
G1 X135.462 Y127.139 E14.8032
G1 X135.962 Y126.947 E14.82101
G1 X136.403 Y126.795 E14.83653
G1 X137.162 Y126.576 E14.8628
G1 X137.654 Y126.477 E14.8795
G1 X138.083 Y126.405 E14.89396
G1 X138.867 Y126.313 E14.92022
G1 X139.34 Y126.297 E14.93596
G1 X139.797 Y126.295 E14.95116
G1 X140.586 Y126.332 E14.97743
G1 X141.06 Y126.392 E14.99332
G1 X141.505 Y126.463 E15.00831
G1 X142.277 Y126.627 E15.03456
G1 X142.758 Y126.772 E15.05127
G1 X143.181 Y126.914 E15.06611
G1 X143.916 Y127.202 E15.09237
G1 X144.37 Y127.426 E15.1092
G1 X144.773 Y127.641 E15.1244
G1 X145.45 Y128.048 E15.15067
G1 X145.831 Y128.32 E15.16624
G1 X146.193 Y128.596 E15.18138
G1 X146.796 Y129.106 E15.20765
G1 X147.177 Y129.488 E15.22559
G1 X147.481 Y129.815 E15.24044
G1 X147.988 Y130.42 E15.26669
G1 X148.255 Y130.795 E15.28201
G1 X148.512 Y131.18 E15.2974
G1 X148.676 Y131.436 E15.30751
G1 X149.148 Y132.329 E15.34111
G1 X149.32 Y132.712 E15.35507
G1 X149.607 Y133.447 E15.38132
G1 X149.745 Y133.909 E15.39735
G1 X149.864 Y134.358 E15.4128
G1 X150.027 Y135.13 E15.43905
G1 X150.089 Y135.617 E15.45537
G1 X150.132 Y136.069 E15.47048
G1 X150.167 Y136.858 E15.49674
G1 X150.146 Y137.38 E15.51412
G1 X150.113 Y137.829 E15.52909
G1 X150.015 Y138.612 E15.55534
G1 X149.912 Y139.104 E15.57206
G1 X149.805 Y139.543 E15.58709
G1 X149.723 Y139.853 E15.59775
G1 X149.4 Y140.765 E15.62993
G1 X149.228 Y141.169 E15.64454
G1 X148.882 Y141.879 E15.67081
G1 X148.627 Y142.308 E15.6874
G1 X148.377 Y142.7 E15.70287
G1 X147.92 Y143.344 E15.72913
G1 X147.584 Y143.74 E15.74641
G1 X147.317 Y144.035 E15.75964
G1 X146.758 Y144.593 E15.78591
G1 X146.146 Y145.092 E15.81217
G1 X145.486 Y145.526 E15.83845
G1 X144.833 Y145.865 E15.86292
G1 X145.168 Y146.029 E15.87532
G1 X145.838 Y146.447 E15.90159
G1 X146.462 Y146.931 E15.92785
G1 X146.632 Y147.099 E15.9358
G1 X146.934 Y147.345 E15.94876
G1 X147.494 Y147.903 E15.97505
G1 X147.993 Y148.514 E16.00129
G1 X148.429 Y149.173 E16.02757
G1 X148.871 Y150.041 E16.05997
G1 X149.123 Y150.623 E16.08106
G1 X149.486 Y151.654 E16.11742
G1 X149.497 Y151.694 E16.1188
G1 X149.717 Y152.808 E16.15656
G1 X149.76 Y153.157 E16.16826
G1 X149.819 Y154.112 E16.20008
G1 X149.817 Y175.138 E16.89941
G1 X149.764 Y176.044 E16.9296
G1 X149.753 Y176.138 E16.93275
G1 X149.657 Y176.748 E16.95328
G1 X149.589 Y177.091 E16.96491
G1 X149.457 Y177.648 E16.98395
G1 X149.211 Y178.399 E17.01024
G1 X149.051 Y178.783 E17.02407
G1 X148.837 Y179.261 E17.04149
G1 X148.478 Y179.965 E17.06778
G1 X148.05 Y180.628 E17.09402
G1 X147.557 Y181.245 E17.12029
G1 X147.244 Y181.579 E17.13552
G1 X146.988 Y181.836 E17.14758
G1 X146.403 Y182.366 E17.17384
G1 X145.768 Y182.835 E17.20009
G1 X145.088 Y183.237 E17.22637
G1 X144.674 Y183.439 E17.24169
G1 X144.196 Y183.655 E17.25913
G1 X143.127 Y184.047 E17.297
G1 X142.501 Y184.2 E17.31844
G1 X142.143 Y184.272 E17.33058
G1 X141.253 Y184.398 E17.36048
G1 X141.145 Y184.407 E17.36408
G1 X140.497 Y184.434 E17.38565
G1 X94.497 Y184.433 E18.91562
G1 X93.666 Y184.389 E18.9433
G1 X93.526 Y184.374 E18.94798
G1 X92.814 Y184.264 E18.97194
G1 X92.482 Y184.197 E18.98321
G1 X91.717 Y184.002 E19.00947
G1 X90.821 Y183.662 E19.04134
G1 X90.335 Y183.443 E19.05907
G1 X89.632 Y183.083 E19.08534
G1 X88.969 Y182.653 E19.11162
G1 X88.354 Y182.159 E19.13786
G1 X88.034 Y181.858 E19.15247
G1 X87.778 Y181.603 E19.16449
G1 X87.248 Y181.018 E19.19075
G1 X86.779 Y180.383 E19.217
G1 X86.377 Y179.703 E19.24327
G1 X86.162 Y179.26 E19.25965
G1 X85.943 Y178.77 E19.2775
G1 X85.658 Y178.033 E19.30379
G1 X85.413 Y177.105 E19.33571
G1 X85.339 Y176.732 E19.34836
G1 X85.224 Y175.942 E19.37491
G1 X85.215 Y175.846 E19.37812
G1 X85.181 Y175.117 E19.40239
G1 X85.183 Y154.089 E20.10178
G1 X85.246 Y153.103 E20.13464
G1 X85.289 Y152.766 E20.14594
G1 X85.463 Y151.845 E20.17712
G1 X85.693 Y151.09 E20.20337
G1 X85.868 Y150.648 E20.21918
G1 X86.125 Y150.052 E20.24077
G1 X86.474 Y149.344 E20.26702
G1 X86.892 Y148.675 E20.29326
G1 X87.377 Y148.051 E20.31954
G1 X87.922 Y147.479 E20.34582
G1 X88.335 Y147.132 E20.36376
G1 X88.494 Y146.978 E20.37113
G1 X89.113 Y146.487 E20.3974
G1 X89.778 Y146.062 E20.42365
G1 X90.577 Y145.666 E20.45331
G1 X90.809 Y145.569 E20.46168
G1 X90.28 Y145.239 E20.48241
G1 X89.656 Y144.756 E20.50866
G1 X89.219 Y144.351 E20.52848
G1 X89.102 Y144.234 E20.53398
G1 X88.572 Y143.648 E20.56026
G1 X88.105 Y143.012 E20.5865
G1 X87.704 Y142.332 E20.61276
G1 X87.374 Y141.614 E20.63904
G1 X87.119 Y140.867 E20.6653
G1 X86.94 Y140.098 E20.69156
G1 X86.84 Y139.314 E20.71784
G1 X86.817 Y138.719 E20.73765
G1 X86.817 Y123.034 E21.25933
G1 X86.605 Y122.8 E21.26983
G1 X86.137 Y122.163 E21.29613
G1 X85.736 Y121.483 E21.32238
G1 X85.447 Y120.867 E21.34501
G1 X85.417 Y120.795 E21.34761
G1 X85.151 Y120.052 E21.37386
G1 X84.961 Y119.285 E21.40014
G1 X84.849 Y118.503 E21.42641
G1 X84.817 Y117.795 E21.44998
G1 X84.817 Y116.453 E21.49462
G1 X84.838 Y116.043 E21.50827
G1 X84.827 Y115.938 E21.51178
G1 X84.817 Y115.536 E21.52516
G1 X84.817 Y108.3 E21.76583
G1 X79.356 Y108.3 E21.94746
G1 X78.567 Y108.26 E21.97374
G1 X77.787 Y108.141 E21.99998
G1 X77.022 Y107.943 E22.02626
G1 X76.282 Y107.669 E22.05251
G1 X75.573 Y107.321 E22.07878
G1 X74.902 Y106.903 E22.10507
G1 X74.289 Y106.429 E22.13085
G1 X74.348 Y106.835 E22.14449
G1 X74.386 Y107.212 E22.15709
G1 X74.425 Y107.994 E22.18314
G1 X74.425 Y160.983 E23.94556
G1 X74.385 Y161.772 E23.97183
G1 X74.266 Y162.552 E23.99808
G1 X74.068 Y163.317 E24.02436
G1 X73.794 Y164.057 E24.0506
G1 X73.446 Y164.766 E24.07687
G1 X73.028 Y165.437 E24.10317
G1 X72.545 Y166.061 E24.12941
G1 X72.14 Y166.498 E24.14923
G1 X72.023 Y166.615 E24.15473
G1 X71.437 Y167.145 E24.18101
G1 X70.801 Y167.612 E24.20726
G1 X70.121 Y168.013 E24.23351
G1 X69.403 Y168.343 E24.25979
G1 X68.656 Y168.598 E24.28605
G1 X67.887 Y168.777 E24.31231
G1 X67.103 Y168.877 E24.3386
G1 X66.508 Y168.9 E24.3584
G1 X41.742 Y168.901 E25.18212
G1 X40.954 Y168.861 E25.20836
G1 X40.173 Y168.742 E25.23464
G1 X39.409 Y168.544 E25.26089
G1 X38.668 Y168.27 E25.28717
G1 X37.959 Y167.922 E25.31343
G1 X37.289 Y167.505 E25.33968
G1 X36.664 Y167.022 E25.36595
G1 X36.227 Y166.616 E25.38579
G1 X36.11 Y166.499 E25.3913
G1 X35.58 Y165.913 E25.41758
G1 X35.113 Y165.277 E25.44382
G1 X34.712 Y164.597 E25.47008
G1 X34.382 Y163.879 E25.49636
G1 X34.127 Y163.132 E25.52261
G1 X33.948 Y162.363 E25.54887
G1 X33.848 Y161.579 E25.57516
G1 X33.825 Y160.984 E25.59496
G1 X33.825 Y107.996 E27.35735
G1 X33.862 Y107.236 E27.38266
G1 X33.899 Y106.858 E27.39529
G1 X34.016 Y106.077 E27.42156
G1 X34.181 Y105.412 E27.44435
G1 X34.291 Y105.039 E27.45728
G1 X34.659 Y104.044 E27.49257
G1 X34.914 Y103.526 E27.51177
G1 X35.088 Y103.203 E27.52397
G1 X35.477 Y102.557 E27.54905
G1 X35.936 Y101.938 E27.57468
G1 X36.173 Y101.649 E27.58711
G1 X36.704 Y101.065 E27.61337
G1 X37.273 Y100.549 E27.63892
G1 X37.562 Y100.312 E27.65135
G1 X38.199 Y99.841 E27.6777
G1 X38.87 Y99.441 E27.70368
G1 X39.213 Y99.259 E27.71659
G1 X39.928 Y98.925 E27.74284
G1 X40.612 Y98.683 E27.76697
G1 X40.987 Y98.57 E27.78
G1 X41.054 Y98.434 E27.78504
G1 X41.472 Y97.763 E27.81133
G1 X41.955 Y97.139 E27.83758
G1 X42.36 Y96.702 E27.8574
G1 X42.477 Y96.585 E27.8629
G1 X43.063 Y96.055 E27.88918
G1 X43.699 Y95.588 E27.91542
G1 X44.379 Y95.187 E27.94168
G1 X45.097 Y94.857 E27.96796
G1 X45.844 Y94.602 E27.99422
G1 X46.613 Y94.423 E28.02048
G1 X47.397 Y94.323 E28.04676
G1 X47.991 Y94.3 E28.06653
G1 X60.257 Y94.299 E28.4745
G1 X61.046 Y94.339 E28.50078
G1 X61.827 Y94.458 E28.52706
G1 X62.591 Y94.656 E28.55331
G1 X63.332 Y94.93 E28.57958
G1 X64.041 Y95.278 E28.60585
G1 X64.711 Y95.695 E28.6321
G1 X65.336 Y96.178 E28.65837
G1 X65.773 Y96.584 E28.67821
G1 X65.89 Y96.701 E28.68371
G1 X66.42 Y97.287 E28.70999
G1 X66.887 Y97.923 E28.73624
G1 X67.27 Y98.573 E28.76133
G1 X67.596 Y98.669 E28.77263
G1 X68.568 Y99.028 E28.8071
G1 X69.099 Y99.289 E28.82678
G1 X69.422 Y99.463 E28.83898
G1 X70.068 Y99.852 E28.86406
G1 X70.687 Y100.311 E28.88969
G1 X70.976 Y100.548 E28.90212
G1 X71.464 Y100.99 E28.92402
G1 X71.462 Y100.978 E28.92442
G1 X71.439 Y100.383 E28.94423
G1 X71.439 Y85.596 E29.43605
G1 X71.461 Y85.162 E29.4505
G1 X71.461 Y84.925 E29.45838
G1 X71.425 Y84.903 E29.45979
G1 X70.801 Y84.42 E29.48603
G1 X70.364 Y84.015 E29.50585
G1 X70.247 Y83.898 E29.51135
G1 X69.717 Y83.312 E29.53763
G1 X69.25 Y82.676 E29.56387
G1 X68.849 Y81.996 E29.59013
G1 X68.519 Y81.278 E29.61641
G1 X68.264 Y80.531 E29.64267
G1 X68.085 Y79.762 E29.66893
G1 X67.985 Y78.978 E29.69521
G1 X67.962 Y78.383 E29.71502
G1 X67.962 Y76.619 E29.77369
G1 X68.002 Y75.83 E29.79997
G1 X68.121 Y75.05 E29.82621
G1 X68.319 Y74.285 E29.85249
G1 X68.593 Y73.545 E29.87874
G1 X68.941 Y72.836 E29.90501
G1 X69.359 Y72.165 E29.9313
G1 X69.842 Y71.541 E29.95754
G1 X70.223 Y71.127 E29.97626
G1 X70.341 Y71.008 E29.98183
G1 X70.925 Y70.476 E30.00811
G1 X71.439 Y70.096 E30.02937
G1 X71.439 Y50.617 E30.67724
G1 X71.479 Y49.828 E30.70352
G1 X71.598 Y49.048 E30.72976
G1 X71.796 Y48.283 E30.75604
G1 X72.07 Y47.543 E30.78229
G1 X72.418 Y46.834 E30.80856
G1 X72.836 Y46.163 E30.83485
G0 F6000 X73.233 Y46.294
G1 F1200 X73.714 Y45.694 E30.86043
G1 X74.006 Y45.384 E30.87459
G1 X74.123 Y45.267 E30.8801
G1 X74.695 Y44.753 E30.90567
G1 X75.317 Y44.3 E30.93127
G1 X75.982 Y43.914 E30.95684
G1 X76.684 Y43.599 E30.98243
G1 X77.415 Y43.359 E31.00802
G1 X78.166 Y43.196 E31.03358
G1 X78.931 Y43.112 E31.05918
G1 X79.356 Y43.1 E31.07332
G1 X159.122 Y43.1 E33.72635
G1 X159.89 Y43.14 E33.75193
G1 X160.65 Y43.259 E33.77751
G1 X161.393 Y43.457 E33.80309
G1 X162.112 Y43.731 E33.82868
G1 X162.798 Y44.078 E33.85425
G1 X163.445 Y44.494 E33.87983
G1 X164.045 Y44.975 E33.90541
G1 X164.355 Y45.267 E33.91957
G1 X164.472 Y45.384 E33.92508
G1 X164.986 Y45.956 E33.95065
G1 X165.439 Y46.578 E33.97625
G1 X165.825 Y47.243 E34.00182
G1 X166.14 Y47.945 E34.02741
G1 X166.38 Y48.676 E34.053
G1 X166.543 Y49.427 E34.07856
G1 X166.627 Y50.192 E34.10416
G1 X166.639 Y50.617 E34.1183
G1 X166.639 Y96.631 E35.64873
G1 X167.273 Y96.6 E35.66984
G1 X167.976 Y96.6 E35.69323
G1 X168.251 Y96.353 E35.70552
G1 X168.873 Y95.9 E35.73111
G1 X169.538 Y95.514 E35.75669
G1 X170.24 Y95.199 E35.78228
G1 X170.971 Y94.959 E35.80787
G1 X171.722 Y94.796 E35.83343
G1 X172.487 Y94.712 E35.85903
G1 X172.911 Y94.7 E35.87313
G1 X182.659 Y94.699 E36.19735
G1 X183.427 Y94.739 E36.22293
G1 X184.187 Y94.858 E36.24852
G1 X184.931 Y95.056 E36.27412
G1 X185.649 Y95.33 E36.29968
G1 X186.336 Y95.677 E36.32528
G1 X186.983 Y96.093 E36.35087
G1 X187.583 Y96.574 E36.37644
G1 X187.611 Y96.6 E36.37772
G1 X188.286 Y96.6 E36.40017
G1 X189.026 Y96.637 E36.42481
G1 X189.404 Y96.675 E36.43744
G1 X190.164 Y96.792 E36.46302
G1 X190.804 Y96.954 E36.48498
G1 X191.178 Y97.067 E36.49797
